X:1
T:Title
%%score 1 2 3 4
L:1/8
Q:1/4=170
M:4/4
K:D
V:1 treble nm="Church Organ, Church Organ"
V:2 treble nm="French Horn, French Horn"
V:3 treble nm="Trombone, Trombone"
V:4 bass nm="Tuba, Tuba"
V:1
 A4 F4 | G4 A4 | B6 B2 | B8 | c4 B4 | A6 G2 | F8 | G4 B4 | e4 d4 | c6 B2 | A8 | B6 F2 | F4 ^G4 | %13
w: By~Sir~G.~A.~Macfarren *|||||||||||||
 A8 | G6 G2 | F4 F4 | B6 B2 | A8 | d6 A2 | G4 F4 | F8 | E8 | D6 E2 | F4 G4 | A4 B4 | c8 | d6 B2 | %27
w: ||||||||||||||
 B4 e4 | d8 |] %29
w: ||
V:2
 F4 D4 | D4 F4 | F6 E2 | E8 | G4 F4 | E4 C4 | D8 | D4 G4 | A4 A4 | A4 E4 | E8 | F6 D2 | D4 D4 | %13
 C8 | D6 D2 | C4 C4 | B,4 C4 | D4 E4 | D4 D4 | C4 D4 | D8 | C8 | D6 C2 | D4 D4 | F4 D4 | F8 | %26
 F6 G2 | G4 G4 | F8 |] %29
V:3
 D4 A,4 | D4 C4 | B,6[K:bass] B,2 | B,4 A,4 | G,4 B,4 | E4 A,4 | A,8 | G,4[K:treble] D4 | C4 D4 | %9
w: Fa ther,~|let~ me~|de di|cate~ *|All~ this~|year~ *|Thee,~|In~ what|ev er~|
 E4 ^G,4 | A,4 B,2 C2 | D6 B,2 | B,4 B,4 | A,8 | B,6 B,2 | A,4 A,4 | G,6 G,2 | F,4 E,4 | A,4 A,4 | %19
w: world *|state~ * *|Thou~ wilt~|have~ me~|be:~|Not~ from~|sor row,~|pain,~ or~|care~ *|Free *|
 A,4 A,4 | A,8 | A,8 | A,6 G,2 | F,4 D4 | D4 B,4 | ^A,8 | B,6 B,2 | B,4 C4 | D8 |] %29
w: dare~ I~|claim;~||This~ a|lone~ shall~|be~ my~|prayer,~|Glo ri|fy~ Thy~|Name.~|
V:4
 D,6 C,2 | B,,4 A,,4 | G,,4 G,4 | G,4 F,4 | E,4 D,4 | C,4 A,,4 | D,8 | B,,4 G,,4 | G,4 F,4 | %9
 E,4 D,4 | C,8 | B,,6 E,2 | E,4 E,4 | A,,8 | A,,6 A,,2 | A,,4 A,,4 | A,,4 A,,4 | A,,4 G,,4 | %18
 F,,4 F,4 | E,4 D,4 | A,8- | A,4 G,4 | F,6 E,2 | D,4 B,4 | A,4 G,4 | F,8 | B,,6 E,2 | E,4 A,,4 | %28
 D,8 |] %29

